!!!OTL: SCHOEN SUSCHEN KANNT ICH LANGE ZEIT
!!!ARE: Europa, Mitteleuropa, Deutschland
!!!SCT: F0187
!!!YEM: Copyright 1995, estate of Helmut Schaffrath.
**kern
*ICvox
*Ivox
*M6/8
*k[b-e-]
*B-:
{8f
=1
4b-
8b-
8b-
8cc
8dd
=2
8cc
8ee-
8ee-
4ee-}
{8cc
=3
4dd
8dd
4ff
8ee-
=4
4.ee-
4dd}
{8f
=5
4b-
8b-
8b-
8cc
8dd
=6
8cc
8ee-
8ee-
4ee-}
{8cc
=7
4dd
8dd
4ff
8ee-
=8
4.ee-
4dd}
{8ff
=9
4ff
8dd
4ee-
8cc
=10
4dd
8b-
4cc}
{8ff
=11
4ee-
8cc
4dd
8b-
=12
4.cc
4r}
{8f
=13
4b-
8b-
8b-
8dd
8dd
=14
8cc
8ee-
8ee-
4ee-}
{8cc
=15
8dd
8ff
8b-
4cc
8dd
=16
4.b-
4r}
==
!!!AGN: Liebes - Lied, Lebens - Philosophie, Spott
!!!ONB: ESAC (Essen Associative Code) Database: FINK
!!!AMT: compound duple
!!!AIN: vox
!!!EED: Helmut Schaffrath
!!!EEV: 1.0
*-
